root/assets/icons/fi-sr-globe.svg

<svg width="32" height="32" viewBox="0 0 32 32" fill="none" xmlns="http://www.w3.org/2000/svg">
<g clip-path="url(#clip0_1052_1943)">
<path d="M16 0C12.8355 0 9.74207 0.938384 7.11088 2.69649C4.4797 4.45459 2.42894 6.95345 1.21793 9.87707C0.00693258 12.8007 -0.309921 16.0177 0.307443 19.1214C0.924806 22.2251 2.44866 25.0761 4.6863 27.3137C6.92394 29.5514 9.77487 31.0752 12.8786 31.6926C15.9823 32.3099 19.1993 31.9931 22.1229 30.7821C25.0466 29.5711 27.5454 27.5203 29.3035 24.8891C31.0616 22.2579 32 19.1645 32 16C31.9954 11.7579 30.3082 7.69095 27.3087 4.69136C24.3091 1.69177 20.2421 0.00458811 16 0V0ZM20.296 9.33333H11.704C12.8357 7.09903 14.2825 5.03888 16 3.216C17.7182 5.03836 19.165 7.09861 20.296 9.33333ZM21.3627 12C21.7725 13.2942 21.9864 14.6425 21.9973 16C21.9864 17.3575 21.7725 18.7058 21.3627 20H10.6347C10.2249 18.7058 10.011 17.3575 10 16C10.011 14.6425 10.2249 13.2942 10.6347 12H21.3627ZM12.5333 3.14133C10.9969 5.02105 9.72879 7.10493 8.76534 9.33333H4.47067C6.23848 6.28858 9.13555 4.06367 12.5333 3.14133ZM2.66667 16C2.66655 14.6431 2.87383 13.2942 3.28134 12H7.86667C7.52102 13.3055 7.34182 14.6495 7.33334 16C7.34182 17.3505 7.52102 18.6945 7.86667 20H3.28134C2.87383 18.7058 2.66655 17.3569 2.66667 16ZM4.47067 22.6667H8.76534C9.72879 24.8951 10.9969 26.979 12.5333 28.8587C9.13555 27.9363 6.23848 25.7114 4.47067 22.6667ZM11.704 22.6667H20.296C19.1643 24.901 17.7175 26.9611 16 28.784C14.2818 26.9616 12.835 24.9014 11.704 22.6667ZM19.4733 28.8587C21.0075 26.9786 22.2733 24.8947 23.2347 22.6667H27.5293C25.7631 25.71 22.8687 27.9348 19.4733 28.8587ZM29.3333 16C29.3335 17.3569 29.1262 18.7058 28.7187 20H24.1333C24.479 18.6945 24.6582 17.3505 24.6667 16C24.6582 14.6495 24.479 13.3055 24.1333 12H28.716C29.1244 13.2941 29.3326 14.643 29.3333 16ZM23.2347 9.33333C22.2733 7.10531 21.0075 5.02145 19.4733 3.14133C22.8687 4.06524 25.7631 6.28996 27.5293 9.33333H23.2347Z" fill="#8C8C8C"/>
</g>
<defs>
<clipPath id="clip0_1052_1943">
<rect width="32" height="32" fill="white"/>
</clipPath>
</defs>
</svg>

<svg xmlns="http://www.w3.org/2000/svg" width="32" height="32" fill="none" viewBox="0 0 32 32"><g clip-path="url(#a)"><path fill="#8c8c8c" d="M16 0a16 16 0 1 0 16 16A16.02 16.02 0 0 0 16 0m4.296 9.333h-8.592A26.2 26.2 0 0 1 16 3.216a26 26 0 0 1 4.296 6.117M21.363 12c.41 1.294.623 2.643.634 4a13.6 13.6 0 0 1-.634 4H10.635A13.6 13.6 0 0 1 10 16c.011-1.357.225-2.706.635-4zm-8.83-8.859a26.2 26.2 0 0 0-3.768 6.192H4.471a13.38 13.38 0 0 1 8.062-6.192M2.667 16c0-1.357.207-2.706.614-4h4.586a16 16 0 0 0-.534 4c.009 1.35.188 2.695.534 4H3.28a13.3 13.3 0 0 1-.614-4m1.804 6.667h4.294a26.2 26.2 0 0 0 3.768 6.192 13.38 13.38 0 0 1-8.062-6.192m7.233 0h8.592A26.2 26.2 0 0 1 16 28.784a26 26 0 0 1-4.296-6.117m7.77 6.192a26.2 26.2 0 0 0 3.76-6.192h4.295a13.38 13.38 0 0 1-8.056 6.192M29.333 16c0 1.357-.208 2.706-.615 4h-4.586a16 16 0 0 0 .534-4 16 16 0 0 0-.534-4h4.583c.408 1.294.617 2.643.617 4m-6.1-6.667a26.2 26.2 0 0 0-3.76-6.192 13.37 13.37 0 0 1 8.055 6.192z"/></g><defs><clipPath id="a"><path fill="#fff" d="M0 0h32v32H0z"/></clipPath></defs></svg>
